X: 1
T: Col. Rodney's Glory
M: 4/4
L: 1/8
R: reel
K: Amaj
|: cA (3AAA eAcd | eaga fedc | dB (3BBB fBde | fBba gafd | 
cA (3AAA eAcd | eaga fedc | defa agaf | eafd cA A2 :| 
|: (3efe ce Aece | aAgA fAea | f2df Bfdf | bBaB gBfB | 
(3efe ce aecd | eaga fedc | defa agaf | eafd cA A2 :|
